gtk/icon/32x32/apps/aseprite.svg

<svg xmlns="http://www.w3.org/2000/svg" width="32" height="32" version="1">
 <path style="opacity:0.2" d="m 2,28 v 1 h 2 v -1 z m 26,0 v 1 H 28 30 V 28 H 28 Z M 4,30 v 1 h 2 20 2 V 30 H 26 6 Z"/>
 <rect style="fill:#ffffff" width="24" height="24" x="4" y="4"/>
 <path style="fill:#5c3e52" d="m6 2v2h20v-2zm20 2v2h2v-2zm2 2v20h2v-20zm0 20h-2v2h2zm-2 2h-20v2h20zm-20 0v-2h-2v2zm-2-2v-20h-2v20zm0-20h2v-2h-2zm6 4v8h2v-8zm10 0v8h2v-8z"/>
 <path style="fill:#6d8292" d="m4 22v4h2v2h20v-2h2v-4h-2v2h-20v-2z"/>
 <rect style="opacity:.2" width="2" height="1" x="2" y="6"/>
 <rect style="opacity:.2" width="2" height="1" x="4" y="4"/>
 <rect style="opacity:.2" width="2" height="1" x="26" y="4"/>
 <rect style="opacity:.2" width="2" height="1" x="28" y="6"/>
 <rect style="opacity:.2" width="2" height="1" x="4" y="21.99"/>
 <rect style="opacity:.2" width="2" height="1" x="4" y="26"/>
 <rect style="opacity:.2" width="2" height="1" x="26" y="21.99"/>
 <rect style="opacity:.2" width="2" height="1" x="26" y="26"/>
 <rect style="opacity:.2" width="20" height="1" x="6" y="24"/>
 <rect style="opacity:.2" width="20" height="1" x="6" y="28"/>
 <path style="opacity:0.1" d="m10 19v-1h2v1zm10 0v-1h2v1z"/>
 <path style="fill:#825873" d="m4 2v2h2v-2zm0 2h-2v2h2zm22-2v2h2v-2zm2 2v2h2v-2zm-26 22v2h2v-2zm2 2v2h2v-2zm24-2v2h2v-2zm0 2h-2v2h2z"/>
 <path style="opacity:0.1;fill:#ffffff" d="m 4,2 v 1 h 2 20 2 V 2 H 26 6 Z M 2,4 V 5 H 4 V 4 Z M 28,4 V 5 H 28 30 V 4 h -2 z"/>
 <path style="opacity:0.1;fill:#ffffff" d="M 2 26 L 2 27 L 4 27 L 4 26 L 2 26 z M 28 26 L 28 27 L 30 27 L 30 26 L 28 26 z M 4 28 L 4 29 L 6 29 L 6 28 L 4 28 z M 26 28 L 26 29 L 28 29 L 28 28 L 26 28 z"/>
</svg>

<svg xmlns="http://www.w3.org/2000/svg" width="32" height="32" version="1">
 <rect style="fill:#ffffff" width="24" height="24" x="4" y="4"/>
 <path style="fill:#5c3e52" d="M 6,2 V 4 H 26 V 2 Z m 20,2 v 2 h 2 V 4 Z m 2,2 v 20 h 2 V 6 Z m 0,20 h -2 v 2 h 2 z m -2,2 H 6 v 2 H 26 Z M 6,28 V 26 H 4 v 2 z M 4,26 V 6 H 2 V 26 Z M 4,6 H 6 V 4 H 4 Z m 6,4 v 7 h 2 v -7 z m 10,0 v 7 h 2 v -7 z"/>
 <path style="fill:#6d8292" d="m 4,23 v 3 h 2 v 2 h 20 v -2 h 2 v -3 h -2 v 1 H 6 v -1 z"/>
 <path style="fill:#735d6c" d="M 4,2 V 4 H 6 V 2 Z M 4,4 H 2 V 6 H 4 Z M 26,2 v 2 h 2 V 2 Z m 2,2 v 2 h 2 V 4 Z M 2,26 v 2 h 2 v -2 z m 2,2 v 2 h 2 v -2 z m 24,-2 v 2 h 2 v -2 z m 0,2 h -2 v 2 h 2 z"/>
 <rect style="opacity:0.2" width="2" height="1" x="2" y="6"/>
 <rect width="2" height="1" x="4" y="4" style="opacity:0.2"/>
 <rect style="opacity:0.2" width="2" height="1" x="26" y="4"/>
 <rect width="2" height="1" x="28" y="6" style="opacity:0.2"/>
 <rect style="opacity:0.2" width="2" height="1" x="4" y="23"/>
 <rect width="2" height="1" x="4" y="26" style="opacity:0.2"/>
 <rect width="2" height="1" x="26" y="23" style="opacity:0.2"/>
 <rect style="opacity:0.2" width="2" height="1" x="26" y="26"/>
 <rect style="opacity:0.2" width="20" height="1" x="6" y="24"/>
 <rect width="20" height="1" x="6" y="28" style="opacity:0.2"/>
 <path style="opacity:0.2" d="M 2 28 L 2 29 L 4 29 L 4 28 L 2 28 z M 28 28 L 28 29 L 30 29 L 30 28 L 28 28 z M 4 30 L 4 31 L 28 31 L 28 30 L 4 30 z"/>
 <path style="opacity:0.1" d="M 10 17 L 10 18 L 12 18 L 12 17 L 10 17 z M 20 17 L 20 18 L 22 18 L 22 17 L 20 17 z"/>
 <rect style="opacity:0.1;fill:#ffffff" width="20" height="1" x="6" y="2"/>
 <rect style="opacity:0.1;fill:#ffffff" width="2" height="1" x="2" y="26"/>
 <rect style="opacity:0.1;fill:#ffffff" width="2" height="1" x="4" y="28"/>
 <rect style="opacity:0.1;fill:#ffffff" width="2" height="1" x="28" y="26"/>
 <rect style="opacity:0.1;fill:#ffffff" width="2" height="1" x="26" y="28"/>
</svg>
